icons/1_Primary/Akamai Connected Cloud.svg

<svg width="1024" height="1024" fill="none" xmlns="http://www.w3.org/2000/svg"><g clip-path="url(#a)"><path d="M512 1024c282.77 0 512-229.23 512-512S794.77 0 512 0 0 229.23 0 512s229.23 512 512 512Z" fill="#9ABEFF"/><path d="M896 497.86c0 9.04-7.29 16.33-16.33 16.33s-16.33-7.29-16.33-16.33 7.29-16.33 16.33-16.33S896 488.82 896 497.86Zm-507.53-13.13 11.67 126.59h-34.42l-2.04-21.88v-.29h-45.79l-10.79 21.88h-35l65.05-126.3h51.34-.02Zm-26.25 79.92-4.08-54.84h-.29l-27.13 54.84h31.5Zm147.59-42.29h-32.09l-24.5 33.25h-5.25l15.17-71.17h-28.88l-27.13 126.59h29.17l7.58-35.88h5.25l13.42 35.88h34.13l-21-46.09 34.13-42.59v.01Zm86.05 33.25-11.67 55.42h-29.17l3.5-13.42h-.88c-4.96 12.25-18.38 14.29-28.58 14.29-20.42 0-30.92-4.96-26.25-27.42 4.38-21.29 16.92-28 37.92-28 8.46 0 21-.29 22.17 9.92h1.46l2.92-14c1.75-8.17 2.33-13.42-10.21-13.42-7 0-11.96 1.75-13.71 9.63h-29.17c5.83-27.71 25.96-27.42 46.67-27.42 29.75 0 41.42 3.79 35 34.42Zm-49 18.96c-7 0-12.83 1.17-14.58 9.33-2.04 9.63 6.13 9.63 10.5 9.63 11.96 0 16.04-1.46 18.08-10.79 1.75-7.58-4.67-8.17-14-8.17Zm174.13-53.09c-11.08 0-23.92 4.96-28.29 17.5h-1.46c1.75-15.46-10.5-17.5-23.04-17.5-9.92 0-21.29 2.92-27.13 13.42h-1.17l2.63-12.54h-28l-18.96 88.67h29.17l10.5-50.46c2.33-10.5 5.83-16.92 17.79-16.92 10.21 0 9.63 5.54 8.17 13.71l-11.38 53.67h29.17l10.5-50.46c2.04-9.33 5.83-16.92 17.21-16.92s9.63 6.71 8.17 16.04l-10.79 51.34h28.88l12.83-60.38c4.38-20.71-4.38-29.17-24.79-29.17h-.01Zm119.59 34.13-11.67 55.42h-29.17l3.79-13.42h-.88c-4.96 12.25-18.38 14.29-28.58 14.29-20.42 0-30.92-4.96-26.25-27.42 4.38-21.29 16.92-28 37.92-28 8.46 0 21-.29 22.17 9.92h1.46l2.92-14c1.46-8.17 2.33-13.42-10.5-13.42-7 0-11.96 1.75-13.71 9.63h-29.17c5.83-27.71 25.96-27.42 46.67-27.42 29.75 0 41.42 3.79 35 34.42Zm-49 18.96c-7 0-12.83 1.17-14.58 9.33-2.04 9.63 6.13 9.63 10.5 9.63 11.96 0 16.04-1.46 18.08-10.79 1.75-7.58-4.67-8.17-14-8.17Zm50.17 36.46h28.88l18.96-88.67h-29.17l-18.67 88.67ZM255.76 436.61c-3.21 2.63-2.04 4.38 2.04 2.63 32.38-14 72.92-14.58 112.59-.58 26.83 9.33 42.29 22.75 43.46 22.17 2.04-.88-15.46-28.88-47.54-41.13-38.79-14.58-80.21-7-110.55 16.92v-.01Zm-63.88 46.96c0 15.75 2.92 30.92 8.46 44.92 2.33 5.83 5.83 6.13 5.25.29-.29-4.08-.58-8.46-.58-12.83 0-68.55 55.71-124.26 124.26-124.26 64.75 0 84.3 28.88 86.63 27.13 2.63-2.04-23.63-59.5-99.76-59.5-68.55 0-124.26 55.71-124.26 124.26v-.01Zm95.09 158.09c-64.46-19.54-111.13-79.05-111.13-149.34s47.84-131.26 113.17-149.92c6.71-2.04 4.96-6.42-3.21-6.42-87.21 0-157.8 70-157.8 156.34s70.88 156.34 157.8 156.34c8.17 0 8.46-4.67 1.17-7Z" fill="#fff"/></g><defs><clipPath id="a"><path fill="#fff" d="M0 0h1024v1024H0z"/></clipPath></defs></svg>

<svg width="1024" height="1024" viewBox="0 0 1024 1024" fill="none" xmlns="http://www.w3.org/2000/svg">
<g clip-path="url(#clip0_2_1452)">
<path d="M512 1024C794.77 1024 1024 794.77 1024 512C1024 229.23 794.77 0 512 0C229.23 0 0 229.23 0 512C0 794.77 229.23 1024 512 1024Z" fill="#9ABEFF"/>
<path d="M896 497.86C896 506.9 888.71 514.19 879.67 514.19C870.63 514.19 863.34 506.9 863.34 497.86C863.34 488.82 870.63 481.53 879.67 481.53C888.71 481.53 896 488.82 896 497.86ZM388.47 484.73L400.14 611.32H365.72L363.68 589.44V589.15H317.89L307.1 611.03H272.1L337.15 484.73H388.49H388.47ZM362.22 564.65L358.14 509.81H357.85L330.72 564.65H362.22ZM509.81 522.36H477.72L453.22 555.61H447.97L463.14 484.44H434.26L407.13 611.03H436.3L443.88 575.15H449.13L462.55 611.03H496.68L475.68 564.94L509.81 522.35V522.36ZM595.86 555.61L584.19 611.03H555.02L558.52 597.61H557.64C552.68 609.86 539.26 611.9 529.06 611.9C508.64 611.9 498.14 606.94 502.81 584.48C507.19 563.19 519.73 556.48 540.73 556.48C549.19 556.48 561.73 556.19 562.9 566.4H564.36L567.28 552.4C569.03 544.23 569.61 538.98 557.07 538.98C550.07 538.98 545.11 540.73 543.36 548.61H514.19C520.02 520.9 540.15 521.19 560.86 521.19C590.61 521.19 602.28 524.98 595.86 555.61ZM546.86 574.57C539.86 574.57 534.03 575.74 532.28 583.9C530.24 593.53 538.41 593.53 542.78 593.53C554.74 593.53 558.82 592.07 560.86 582.74C562.61 575.16 556.19 574.57 546.86 574.57ZM720.99 521.48C709.91 521.48 697.07 526.44 692.7 538.98H691.24C692.99 523.52 680.74 521.48 668.2 521.48C658.28 521.48 646.91 524.4 641.07 534.9H639.9L642.53 522.36H614.53L595.57 611.03H624.74L635.24 560.57C637.57 550.07 641.07 543.65 653.03 543.65C663.24 543.65 662.66 549.19 661.2 557.36L649.82 611.03H678.99L689.49 560.57C691.53 551.24 695.32 543.65 706.7 543.65C718.08 543.65 716.33 550.36 714.87 559.69L704.08 611.03H732.96L745.79 550.65C750.17 529.94 741.41 521.48 721 521.48H720.99ZM840.58 555.61L828.91 611.03H799.74L803.53 597.61H802.65C797.69 609.86 784.27 611.9 774.07 611.9C753.65 611.9 743.15 606.94 747.82 584.48C752.2 563.19 764.74 556.48 785.74 556.48C794.2 556.48 806.74 556.19 807.91 566.4H809.37L812.29 552.4C813.75 544.23 814.62 538.98 801.79 538.98C794.79 538.98 789.83 540.73 788.08 548.61H758.91C764.74 520.9 784.87 521.19 805.58 521.19C835.33 521.19 847 524.98 840.58 555.61ZM791.58 574.57C784.58 574.57 778.75 575.74 777 583.9C774.96 593.53 783.13 593.53 787.5 593.53C799.46 593.53 803.54 592.07 805.58 582.74C807.33 575.16 800.91 574.57 791.58 574.57ZM841.75 611.03H870.63L889.59 522.36H860.42L841.75 611.03ZM255.76 436.61C252.55 439.24 253.72 440.99 257.8 439.24C290.18 425.24 330.72 424.66 370.39 438.66C397.22 447.99 412.68 461.41 413.85 460.83C415.89 459.95 398.39 431.95 366.31 419.7C327.52 405.12 286.1 412.7 255.76 436.62V436.61ZM191.88 483.57C191.88 499.32 194.8 514.49 200.34 528.49C202.67 534.32 206.17 534.62 205.59 528.78C205.3 524.7 205.01 520.32 205.01 515.95C205.01 447.4 260.72 391.69 329.27 391.69C394.02 391.69 413.57 420.57 415.9 418.82C418.53 416.78 392.27 359.32 316.14 359.32C247.59 359.32 191.88 415.03 191.88 483.58V483.57ZM286.97 641.66C222.51 622.12 175.84 562.61 175.84 492.32C175.84 422.03 223.68 361.06 289.01 342.4C295.72 340.36 293.97 335.98 285.8 335.98C198.59 335.98 128 405.98 128 492.32C128 578.66 198.88 648.66 285.8 648.66C293.97 648.66 294.26 643.99 286.97 641.66Z" fill="white"/>
</g>
<defs>
<clipPath id="clip0_2_1452">
<rect width="1024" height="1024" fill="white"/>
</clipPath>
</defs>
</svg>
